X:1
T:The Planets
T:Gustav Holst Engraved by R. L. Roy
T:Excerpt 1 Movement I: m. 110 to [8]
T:Tuba
T:www.brassexcerpts.com This work is made available under the Creative Commons CC0 1.0 Universal Public Domain Dedication. You can copy, modify, distribute and perform the work, even for commercial purposes, all without asking permission.
Z:www.brassexcerpts.com
Z:This work is made available under the Creative Commons CC0 1.0 Universal Public Domain Dedication.
Z:You can copy, modify, distribute and perform the work, even for commercial purposes, all without asking permission.
L:1/8
Q:1/4=150
M:5/4
K:C
V:1 bass nm="Piano" snm="Pno."
V:1
!fff! (3G,,G,,G,, G,,2 G,,2 G,,G,, G,,2 | (3G,,G,,G,, G,,2 G,,2 G,,G,, G,,2 | %2
 (3G,,G,,G,, G,,2 G,,2 G,,G,, G,,2 | G,,,6- G,,,4- | G,,,6 D,,4 | _D,,6- D,,4- | D,,6- D,,4- | %7
 D,,2 z2 z2 z4 | G,,,6- G,,,4- | G,,,6 D,,4 | _D,,6 _A,,4 | G,,6 D,4 | _D,6 _A,4 | G,6 z4 | z10 | %15
 z10 |!fff! _D,,6 _B,,4 | A,,6 E,4 | ^C,6 z4 | z10 |!fff!"^Soli." _E,,6 C,4 | _B,,6 F,4 | _E,6 C4 | %23
 _B,6 z4 |"^8" G,,2 z2 z2 z4 |] %25

